build/img/f.svg

<svg width="46" height="46" viewBox="0 0 46 46" fill="none" xmlns="http://www.w3.org/2000/svg">
<circle cx="23" cy="23" r="23" fill="#2B3BB7"/>
<path d="M24.3428 31.8721V23.3346H27.303L27.743 19.9918H24.3428V17.8627C24.3428 16.8981 24.619 16.2377 26.0419 16.2377H27.8447V13.2575C26.9675 13.166 26.0858 13.1218 25.2036 13.1252C22.587 13.1252 20.7906 14.6793 20.7906 17.5325V19.9856H17.8496V23.3283H20.797V31.8721H24.3428Z" fill="#F3F3F3"/>
</svg>

<svg width="46" height="46" fill="none" xmlns="http://www.w3.org/2000/svg"><circle cx="23" cy="23" r="23" fill="#2B3BB7"/><path d="M24.343 31.872v-8.537h2.96l.44-3.343h-3.4v-2.13c0-.964.276-1.624 1.699-1.624h1.803v-2.98a24.546 24.546 0 00-2.641-.133c-2.617 0-4.413 1.554-4.413 4.407v2.454H17.85v3.342h2.947v8.544h3.546z" fill="#F3F3F3"/></svg>
